assets/icons/action/goal.svg

<?xml version="1.0"?><svg xmlns="http://www.w3.org/2000/svg" width="52" height="52" viewBox="0 0 52 52"><g fill="#fff"><path d="m5 2c-1.7 0-3 1.3-3 3v42c0 1.6 1.3 3 3 3 1.6 0 3-1.3 3-3v-42c0-1.7-1.3-3-3-3z m43.8 4.5c-13 6.8-23.3-4.9-35.6-0.4-0.6 0.2-1.2 0.8-1.2 1.5v22.4c0 1.1 1.2 1.9 2.3 1.6 11.8-3.5 22 7.6 34.8 0.6 0.5-0.3 0.9-0.8 0.9-1.4v-23.6c0-0.6-0.7-1-1.2-0.7z m-2.8 22.7l-0.5 0.2c-1 0.5-2.6 0.6-5.3 0.6h-0.2v-5c-1.5 0-4.2-0.3-6-0.7v5.3c-1.7-0.3-3.3-0.6-4.6-0.9-0.5-0.1-1-0.3-1.4-0.4v-5.5c-1.7-0.5-4.3-1-6-1.4v5.7c-1.2-0.2-1.5-0.3-2.8-0.3-0.5 0-0.9 0-1.6 0.1l-1.6 0.1v-5.8c1-0.2 2.2-0.2 3.5-0.2 1.3 0 1.4 0.1 2.5 0.3v-6c-1.1-0.2-5-0.2-6 0.1v-6.2l0.9-0.1c1-0.1 4 0.1 5.1 0.4v5.8c1.4 0.3 3.8 0.8 5.6 1.3 0.1 0 0.3 0.1 0.4 0.1v-5.8c1.8 0.5 3.9 1.1 6 1.4v5.7c1.7 0.3 4.4 0.5 6 0.5v-5.5h0.2c1.6 0 2.7-0.4 4.7-0.7l1.2-0.4v6c-1.8 0.5-3.7 0.7-5.6 0.7h-0.4v6.4h0.2c1.9 0 4-0.7 5.8-1.5v5.7z m-18-12.5v6c0.4 0.1 0.8 0.2 1.2 0.4 1.5 0.4 3.1 0.9 4.8 1.2v-6.2c-2.1-0.4-4.2-0.9-6-1.4z"></path></g></svg>

<svg xmlns="http://www.w3.org/2000/svg" x="0px" y="0px"
	 width="52px" height="52px" viewBox="0 0 52 52" enable-background="new 0 0 52 52" xml:space="preserve">
<g>
	<path fill="#FFFFFF" d="M5,2L5,2C3.3,2,2,3.3,2,5V47c0,1.6,1.3,3,3,3H5c1.6,0,3-1.3,3-3V5C8,3.3,6.7,2,5,2z"/>
	<path fill="#FFFFFF" d="M48.8,6.5c-13,6.8-23.3-4.9-35.6-0.4C12.6,6.3,12,6.9,12,7.6V30c0,1.1,1.2,1.9,2.3,1.6
		c11.8-3.5,22,7.6,34.8,0.6c0.5-0.3,0.9-0.8,0.9-1.4V7.2C50,6.6,49.3,6.2,48.8,6.5z M46,29.2l-0.5,0.2c-1,0.5-2.6,0.6-5.3,0.6H40v-5
		c-1.5,0-4.2-0.3-6-0.7v5.3c-1.7-0.3-3.3-0.6-4.6-0.9c-0.5-0.1-1-0.3-1.4-0.4v-5.5c-1.7-0.5-4.3-1-6-1.4v5.7
		c-1.2-0.2-1.5-0.3-2.8-0.3c-0.5,0-0.9,0-1.6,0.1L16,27v-5.8c1-0.2,2.2-0.2,3.5-0.2c1.3,0,1.4,0.1,2.5,0.3v-6c-1.1-0.2-5-0.2-6,0.1
		V9.2l0.9-0.1c1-0.1,4,0.1,5.1,0.4v5.8c1.4,0.3,3.8,0.8,5.6,1.3c0.1,0,0.3,0.1,0.4,0.1v-5.8c1.8,0.5,3.9,1.1,6,1.4v5.7
		c1.7,0.3,4.4,0.5,6,0.5V13h0.2c1.6,0,2.7-0.4,4.7-0.7l1.2-0.4v6c-1.8,0.5-3.7,0.7-5.6,0.7c-0.1,0-0.3,0-0.4,0V25h0.2
		c1.9,0,4-0.7,5.8-1.5V29.2z"/>
	<path fill="#FFFFFF" d="M28,16.7v6c0.4,0.1,0.8,0.2,1.2,0.4c1.5,0.4,3.1,0.9,4.8,1.2v-6.2C31.9,17.7,29.8,17.2,28,16.7z"/>
</g>
</svg>
